images/social/vk.svg

<svg width="30" height="30" viewBox="0 0 30 30" fill="none" xmlns="http://www.w3.org/2000/svg">
<path d="M15 30C23.2843 30 30 23.2843 30 15C30 6.71573 23.2843 0 15 0C6.71573 0 0 6.71573 0 15C0 23.2843 6.71573 30 15 30Z" fill="#3E5ABE"/>
<path fill-rule="evenodd" clip-rule="evenodd" d="M14.4334 21.5788H15.6108C15.6108 21.5788 15.9664 21.5398 16.1479 21.3441C16.3151 21.1644 16.3097 20.8269 16.3097 20.8269C16.3097 20.8269 16.2867 19.2472 17.0199 19.0146C17.7426 18.7854 18.6708 20.5414 19.6545 21.2165C20.3984 21.7275 20.9636 21.6155 20.9636 21.6155L23.5939 21.5788C23.5939 21.5788 24.9699 21.4941 24.3175 20.4122C24.264 20.3237 23.9375 19.6119 22.3618 18.1493C20.7125 16.6185 20.9334 16.8661 22.9201 14.2182C24.13 12.6055 24.6138 11.621 24.4627 11.1993C24.3186 10.7977 23.4287 10.9039 23.4287 10.9039L20.4671 10.9223C20.4671 10.9223 20.2476 10.8924 20.0847 10.9897C19.9256 11.0852 19.8232 11.3076 19.8232 11.3076C19.8232 11.3076 19.3545 12.5555 18.7293 13.6168C17.4106 15.8562 16.8833 15.9744 16.6677 15.8353C16.1664 15.5112 16.2915 14.5334 16.2915 13.8387C16.2915 11.6686 16.6207 10.7638 15.6506 10.5295C15.3287 10.4517 15.0918 10.4004 14.2685 10.3921C13.2117 10.3811 12.3173 10.3953 11.8109 10.6434C11.474 10.8084 11.2141 11.1761 11.3724 11.1972C11.5681 11.2234 12.0114 11.3167 12.2465 11.6368C12.5499 12.0496 12.5393 12.9769 12.5393 12.9769C12.5393 12.9769 12.7136 15.5316 12.132 15.849C11.7328 16.0666 11.1852 15.6222 10.0095 13.5906C9.40706 12.5499 8.95223 11.3996 8.95223 11.3996C8.95223 11.3996 8.86452 11.1846 8.7081 11.0696C8.51826 10.9303 8.25301 10.8859 8.25301 10.8859L5.43873 10.9044C5.43873 10.9044 5.01626 10.9162 4.86117 11.0999C4.7232 11.2632 4.85021 11.6012 4.85021 11.6012C4.85021 11.6012 7.0535 16.7559 9.54824 19.3536C11.8358 21.7353 14.4334 21.5788 14.4334 21.5788Z" fill="white"/>
</svg>

<svg width="30" height="30" fill="none" xmlns="http://www.w3.org/2000/svg"><path d="M15 30c8.284 0 15-6.716 15-15 0-8.284-6.716-15-15-15C6.716 0 0 6.716 0 15c0 8.284 6.716 15 15 15Z" fill="#3E5ABE"/><path fill-rule="evenodd" clip-rule="evenodd" d="M14.433 21.579h1.178s.355-.04.537-.235c.167-.18.162-.517.162-.517s-.023-1.58.71-1.812c.723-.23 1.65 1.526 2.634 2.201.744.511 1.31.4 1.31.4l2.63-.037s1.376-.085.723-1.167c-.053-.088-.38-.8-1.955-2.263-1.65-1.53-1.429-1.283.558-3.93 1.21-1.614 1.694-2.598 1.543-3.02-.144-.401-1.034-.295-1.034-.295l-2.962.018s-.22-.03-.382.068c-.16.095-.262.318-.262.318s-.468 1.248-1.094 2.309c-1.318 2.24-1.846 2.357-2.061 2.218-.502-.324-.377-1.302-.377-1.996 0-2.17.33-3.075-.64-3.31-.322-.077-.56-.129-1.383-.137-1.056-.01-1.95.003-2.457.251-.337.165-.597.533-.439.554.196.026.64.12.874.44.304.413.293 1.34.293 1.34s.175 2.555-.407 2.872c-.4.218-.947-.227-2.123-2.258C9.407 12.55 8.952 11.4 8.952 11.4s-.087-.215-.244-.33c-.19-.14-.455-.184-.455-.184l-2.814.018s-.423.012-.578.196c-.138.163-.01.501-.01.501s2.202 5.155 4.697 7.753c2.288 2.381 4.885 2.225 4.885 2.225Z" fill="#fff"/></svg>
